contributed-vectors/i_love_hue.svg

<svg width="192" height="192" version="1.1" viewBox="0 0 192 192" xmlns="http://www.w3.org/2000/svg">
 <path d="m76 144 4 17.594c8.2134 6.3336 13.914 9.8203 13.914 9.8203 1.2805 0.78252 2.8913 0.78252 4.1719 0 0 0 5.7007-3.4867 13.914-9.8203l4-17.594z" style="fill:#96dfd3;paint-order:stroke fill markers"/>
 <rect x="76" y="76" width="40" height="40" style="fill:#b1b5bd;paint-order:stroke fill markers"/>
 <rect x="76" y="112" width="40" height="32" style="fill:#a3cac8;paint-order:stroke fill markers;stroke-width:1.118"/>
 <rect x="48" y="76" width="32" height="40" style="fill:#d4bba5;paint-order:stroke fill markers;stroke-width:1.118"/>
 <rect x="76" y="48" width="40" height="32" style="fill:#b7a8de;paint-order:stroke fill markers"/>
 <rect x="112" y="76" width="32" height="40" style="fill:#92a1be;paint-order:stroke fill markers;stroke-width:1.118"/>
 <path d="m48 22.51c-6.1218 2.054-11.49 5.3236-15.828 9.6621-4.3388 4.3388-7.6081 9.7058-9.6621 15.828h25.49v-25.49z" style="fill:#ff837d;paint-order:stroke fill markers"/>
 <rect x="48" y="48" width="32" height="32" style="fill:#d9a5b2;paint-order:stroke fill markers"/>
 <path d="m80 22.5-4 25.5h40l-4-25.5c-7.4912 2.4013-12.961 5.9988-16 8.3359-3.0392-2.3371-8.5088-5.9347-16-8.3359z" style="fill:#bd9aff;paint-order:stroke fill markers"/>
 <path d="m64 20c-5.7274 0-11.104 0.86709-16 2.5098v25.49h32v-25.5c-4.6012-1.4749-9.9618-2.5-16-2.5z" style="fill:#de8fbe;paint-order:stroke fill markers"/>
 <path d="m21.605 80c2.2913 11.522 6.8759 22.249 12.668 32l13.727 4v-40z" style="fill:#f8c18c;paint-order:stroke fill markers"/>
 <path d="m22.51 48c-1.6424 4.8954-2.5098 10.273-2.5098 16 0 5.4846 0.57549 10.821 1.6055 16h26.395v-32h-25.49z" style="fill:#fca285;paint-order:stroke fill markers"/>
 <rect x="112" y="48" width="32" height="32" style="fill:#9c93ce;paint-order:stroke fill markers"/>
 <path d="m128 20c-6.0382 0-11.399 1.0251-16 2.5v25.5h32v-25.49c-4.8959-1.6427-10.272-2.5098-16-2.5098z" style="fill:#a586de;paint-order:stroke fill markers"/>
 <path d="m144 76v40l13.727-4c5.7921-9.7506 10.377-20.478 12.668-32z" style="fill:#728dbe;paint-order:stroke fill markers"/>
 <path d="m144 48v32h26.395c1.03-5.1792 1.6055-10.515 1.6055-16 0-5.7268-0.86742-11.105-2.5098-16h-25.49z" style="fill:#7f80be;paint-order:stroke fill markers"/>
 <path d="m144 22.51v25.49h25.49c-2.054-6.1224-5.3232-11.489-9.6621-15.828-4.3384-4.3384-9.7065-7.6081-15.828-9.6621z" style="fill:#8c72bd;paint-order:stroke fill markers"/>
 <path d="m48 112v19.168c2.9983 3.5773 6.0667 6.9699 9.1328 10.121 0.90277 0.92782 1.8044 1.8205 2.7051 2.7109h20.162v-32h-32z" style="fill:#b6cdae;paint-order:stroke fill markers"/>
 <path d="m34.273 112c4.1023 6.906 8.812 13.304 13.727 19.168v-19.168h-13.727z" style="fill:#c8cf93;paint-order:stroke fill markers"/>
 <path d="m112 112v32h20.162c0.90071-0.89047 1.8023-1.7831 2.7051-2.7109 3.0661-3.1512 6.1345-6.5438 9.1328-10.121v-19.168h-32z" style="fill:#95b8d3;paint-order:stroke fill markers"/>
 <path d="m144 112v19.168c4.9145-5.8636 9.6242-12.262 13.727-19.168h-13.727z" style="fill:#86a6df;paint-order:stroke fill markers"/>
 <path d="m59.838 144c7.2381 7.1558 14.332 13.098 20.162 17.594v-17.594h-20.162z" style="fill:#97deb6;paint-order:stroke fill markers"/>
 <path d="m112 144v17.594c5.8304-4.496 12.924-10.438 20.162-17.594h-20.162z" style="fill:#98cfe9;paint-order:stroke fill markers"/>
</svg>

<svg xmlns="http://www.w3.org/2000/svg" width="192" height="192"><path d="m76 144 4 17.594c8.213 6.334 13.914 9.82 13.914 9.82a4 4 0 0 0 4.172 0s5.7-3.486 13.914-9.82L116 144z" style="fill:#96dfd3;paint-order:stroke fill markers"/><path d="M76 76h40v40H76z" style="fill:#b1b5bd;paint-order:stroke fill markers"/><path d="M76 112h40v32H76z" style="fill:#a3cac8;paint-order:stroke fill markers;stroke-width:1.118"/><path d="M48 76h32v40H48z" style="fill:#d4bba5;paint-order:stroke fill markers;stroke-width:1.118"/><path d="M76 48h40v32H76z" style="fill:#b7a8de;paint-order:stroke fill markers"/><path d="M112 76h32v40h-32z" style="fill:#92a1be;paint-order:stroke fill markers;stroke-width:1.118"/><path d="M48 22.51c-6.122 2.054-11.49 5.324-15.828 9.662-4.339 4.339-7.608 9.706-9.662 15.828H48V22.51z" style="fill:#ff837d;paint-order:stroke fill markers"/><path d="M48 48h32v32H48z" style="fill:#d9a5b2;paint-order:stroke fill markers"/><path d="M80 22.5 76 48h40l-4-25.5c-7.491 2.401-12.961 5.999-16 8.336-3.04-2.337-8.509-5.935-16-8.336z" style="fill:#bd9aff;paint-order:stroke fill markers"/><path d="M64 20c-5.727 0-11.104.867-16 2.51V48h32V22.5A52.221 52.221 0 0 0 64 20z" style="fill:#de8fbe;paint-order:stroke fill markers"/><path d="M21.605 80c2.291 11.522 6.876 22.249 12.668 32L48 116V76z" style="fill:#f8c18c;paint-order:stroke fill markers"/><path d="M22.51 48C20.868 52.895 20 58.273 20 64c0 5.485.576 10.821 1.606 16H48V48H22.51z" style="fill:#fca285;paint-order:stroke fill markers"/><path d="M112 48h32v32h-32z" style="fill:#9c93ce;paint-order:stroke fill markers"/><path d="M128 20a52.22 52.22 0 0 0-16 2.5V48h32V22.51c-4.896-1.643-10.272-2.51-16-2.51z" style="fill:#a586de;paint-order:stroke fill markers"/><path d="M144 76v40l13.727-4c5.792-9.75 10.377-20.478 12.668-32z" style="fill:#728dbe;paint-order:stroke fill markers"/><path d="M144 48v32h26.395c1.03-5.18 1.605-10.515 1.605-16 0-5.727-.867-11.105-2.51-16H144z" style="fill:#7f80be;paint-order:stroke fill markers"/><path d="M144 22.51V48h25.49c-2.054-6.122-5.323-11.489-9.662-15.828-4.339-4.338-9.707-7.608-15.828-9.662z" style="fill:#8c72bd;paint-order:stroke fill markers"/><path d="M48 112v19.168a184.466 184.466 0 0 0 9.133 10.121c.903.928 1.804 1.82 2.705 2.71H80v-32H48z" style="fill:#b6cdae;paint-order:stroke fill markers"/><path d="M34.273 112c4.102 6.906 8.812 13.304 13.727 19.168V112H34.273z" style="fill:#c8cf93;paint-order:stroke fill markers"/><path d="M112 112v32h20.162c.9-.89 1.802-1.783 2.705-2.71A184.54 184.54 0 0 0 144 131.167V112h-32z" style="fill:#95b8d3;paint-order:stroke fill markers"/><path d="M144 112v19.168c4.915-5.864 9.624-12.262 13.727-19.168H144z" style="fill:#86a6df;paint-order:stroke fill markers"/><path d="M59.838 144c7.238 7.156 14.332 13.098 20.162 17.594V144H59.838z" style="fill:#97deb6;paint-order:stroke fill markers"/><path d="M112 144v17.594c5.83-4.496 12.924-10.438 20.162-17.594H112z" style="fill:#98cfe9;paint-order:stroke fill markers"/></svg>
